X:145
T:Mopsi Don - Mopsi's Tune
M:6/8
L:1/8
Q:120
C:Trad. arr. Ceri Rhys Matthews
R:Jig
N:Aeolian mode arrangement
K:G
DEF F2 G | F2 G FED | E2 E GAG | E2 E GAG | DEF F2 G
|F2 G FED|EFG A2 G|FED E3:||:BGB AFA|GEG FED|E2 E GFE| D2 E F3 | BG
B AFA | GEG F3 | GFE c2 B | AGF E3 :||
